findly-builder/apps/searchassist/src/assets/icons/sidemenu/plus-table.svg

<svg width="14" height="14" viewBox="0 0 14 14" fill="none" xmlns="http://www.w3.org/2000/svg">
<path d="M7.53311 1.26436C7.5085 0.991583 7.27924 0.777832 7.00005 0.777832C6.70445 0.777832 6.46481 1.01747 6.46481 1.31308V6.46481H1.31308L1.26436 6.467C0.991583 6.49161 0.777832 6.72087 0.777832 7.00005C0.777832 7.29566 1.01747 7.5353 1.31308 7.5353H6.46481V12.687L6.467 12.7358C6.49161 13.0085 6.72087 13.2223 7.00005 13.2223C7.29566 13.2223 7.5353 12.9826 7.5353 12.687V7.5353H12.687L12.7358 7.53311C13.0085 7.5085 13.2223 7.27924 13.2223 7.00005C13.2223 6.70445 12.9826 6.46481 12.687 6.46481H7.5353V1.31308L7.53311 1.26436Z" fill="#202124"/>
</svg>

<svg width="14" height="14" fill="none" xmlns="http://www.w3.org/2000/svg"><path d="M7.533 1.264a.535.535 0 0 0-1.068.05v5.15H1.313l-.049.003a.535.535 0 0 0 .05 1.068h5.15v5.152l.003.049a.535.535 0 0 0 1.068-.049V7.535h5.152l.049-.002a.535.535 0 0 0-.049-1.068H7.535V1.313l-.002-.049Z" fill="#202124"/></svg>
